X:381
T:Reel 381
M:4/4
K:Amin
L:1/8
ED|CA,G,F, E,D,D,2|E,A,A,^G, A,B,CD||EFDF EFCE|CDCD EDCA,:||2ECDB, CA,B,G,|E,A,A,^G, A,2|E2|AGAF G2GE|FEDF E2CD|A,^G,A,B, CB,CD|EAA^G A2AG|AAAG AGED|CDE^F G2FE|AFGE FDEC|DCB,C D2|
